X: 13030
T: Finbarr Dwyer's
R: polka
M: 2/4
K: Emajor
K: ALydian
|:G/F/|Ec cB/A/|ce- ed/e/|fe Ac|BA/B/ c/B/A/F/|
Ec- c/B/A/c/|e2 ed/e/|fe c/e/c/B/|A2 A:|
|:c/e/|aa gf|ee- ec/e/|fe cA|Bc/e/ c/B/A/e/|
aa g/a/g/f/|e2 ed/e/|f/e/d/e/ cB|A2- A:|

